images/icon-price.svg

<svg height="12" viewBox="0 0 10 12" width="10" xmlns="http://www.w3.org/2000/svg"><path d="m8.24414062 11.0888672v-1.12109376c-.25292968.03417966-.59472656.05468746-1.07324218.05468746-1.92089844 0-3.19921875-.84082028-3.68457032-2.39941402h3.69140626v-.9296875h-3.86914063c-.02050781-.19824219-.03417969-.41015626-.03417969-.62890626 0-.23242187.01367188-.45117187.03417969-.66308593h3.86914063v-.9296875h-3.67773438c.4921875-1.53125 1.76367188-2.36523438 3.67089844-2.36523438.47851562 0 .82714844.01367188 1.07324218.0546875v-1.12109375c-.22558593-.03417968-.67675781-.06835937-1.07324218-.06835937-2.72070313 0-4.46386719 1.24414062-4.99023438 3.5h-1.46972656v.9296875h1.32617188c-.02050782.21191406-.02734376.4375-.02734376.66308593 0 .21875.00683594.42382813.02734376.62890626h-1.32617188v.9296875h1.46289062c.51953126 2.28320312 2.26269532 3.53417972 4.99707032 3.53417972.39648437 0 .84765625-.0341797 1.07324218-.0683594z" fill="#1bb24b" fill-rule="evenodd"/></svg>

<?xml version="1.0" encoding="UTF-8" standalone="no"?>
<svg width="10px" height="12px" viewBox="0 0 10 12" version="1.1" xmlns="http://www.w3.org/2000/svg" xmlns:xlink="http://www.w3.org/1999/xlink">
    <!-- Generator: Sketch 3.7.2 (28276) - http://www.bohemiancoding.com/sketch -->
    <title>icon-price</title>
    <desc>Created with Sketch.</desc>
    <defs></defs>
    <g id="Symbols" stroke="none" stroke-width="1" fill="none" fill-rule="evenodd">
        <g id="icon-price" fill="#1BB24B">
            <path d="M8.24414062,11.0888672 L8.24414062,9.96777344 C7.99121094,10.0019531 7.64941406,10.0224609 7.17089844,10.0224609 C5.25,10.0224609 3.97167969,9.18164062 3.48632812,7.62304688 L7.17773438,7.62304688 L7.17773438,6.69335938 L3.30859375,6.69335938 C3.28808594,6.49511719 3.27441406,6.28320312 3.27441406,6.06445312 C3.27441406,5.83203125 3.28808594,5.61328125 3.30859375,5.40136719 L7.17773438,5.40136719 L7.17773438,4.47167969 L3.5,4.47167969 C3.9921875,2.94042969 5.26367188,2.10644531 7.17089844,2.10644531 C7.64941406,2.10644531 7.99804688,2.12011719 8.24414062,2.16113281 L8.24414062,1.04003906 C8.01855469,1.00585938 7.56738281,0.971679688 7.17089844,0.971679688 C4.45019531,0.971679688 2.70703125,2.21582031 2.18066406,4.47167969 L0.7109375,4.47167969 L0.7109375,5.40136719 L2.03710938,5.40136719 C2.01660156,5.61328125 2.00976562,5.83886719 2.00976562,6.06445312 C2.00976562,6.28320312 2.01660156,6.48828125 2.03710938,6.69335938 L0.7109375,6.69335938 L0.7109375,7.62304688 L2.17382812,7.62304688 C2.69335938,9.90625 4.43652344,11.1572266 7.17089844,11.1572266 C7.56738281,11.1572266 8.01855469,11.1230469 8.24414062,11.0888672 L8.24414062,11.0888672 Z"></path>
        </g>
    </g>
</svg>
